X:1
T:Rimsky-Korsakov Harmonic Exercises, Sequences
T:Rimsky-Korsakov Harmonic Exercises, Sequences
T:"Practical Manual of Harmony" (1885)
%%score { ( 1 4 ) | ( 2 3 ) }
L:1/8
Q:1/2=160
M:2/1
K:C
V:1 treble nm="Piano" snm="Pno."
V:4 treble 
V:2 bass 
V:3 bass 
V:1
"""^The sequences are based on the connection of the triads V - I""^Examples by Rimsky-Korsakov:""_C:" [GB]8"" [Gc]8 | %1
"" [FA]8"" [FB]8 |"" [EG]8"" [EA]8 |"" [DF]8"" [DG]8 |"" [CE]8"" [CF]8 |"" [B,D]8"" [B,E]8 | %6
"" [A,C]8"" [A,D]8 |"" [G,B,]8"" [G,C]8 |]"""_a:" [B^g]8"" [ca]8 |"" [Af]8"" [B=g]8 | %10
"" [Ge]8"" [Af]8 |"" [Fd]8"" [Ge]8 |"" [Ec]8"" [Fd]8 |"" [DB]8"" [Ec]8 |"" [CA]8"" [DB]8 | %15
"" [B,^G]8"" [CA]8 |]"""^V⁶ - I""_C:" g8"" e8 |"" f8"" d8 |"" e8"" c8 |"" d8"" B8 |"" c8"" A8 | %21
"" B8"" G8 |"" A8"" F8 |"" G8"" E8 |]"""_C:" g8"" g8 |"" f8"" f8 |"" e8"" e8 |"" d8"" d8 | %28
"" c8"" c8 |"" B8"" B8 |"" A8"" A8 |"" G8"" G8 |]"""^IV - V""_C:" f8"" d8 |"" e8"" c8 |"" d8"" B8 | %35
"" c8"" A8 |"" B8"" G8 |"" A8"" F8 |"" G8"" E8 |"" F8"" D8 |]"""_a:" a8"" g8 |"" g8"" f8 | %42
"" f8"" e8 |"" e8"" d8 |"" d8"" c8 |"" c8"" B8 |"" B8"" A8 |"" A8"" ^G8 |] %48
"""_C:""^IV⁶ - V" f8"" d8 |"" e8"" c8 |]"" f8"" g8 |"" e8"" f8 |]"" f8"" g8 |"" e8"" f8 |] %54
"" f8"" d8 |"" e8"" c8 |]"""^Upward sequences""_C:" e8"" f8 |"" f8"" g8 |]"" g8"" f8 |"" a8"" g8 |] %60
"" e8"" d8 |"" f8"" e8 |] %62
"""^Sequences with seventh chords and triads""_C:""_complete" f8"""_incomplete" e8- |"" e8"" d8- | %64
"" d8"" c8- |"" c8"" B8- |"" B8"" A8- |"" A8"" G8- |"" G8"" F8- |"" F8"" E8 |] %70
"""_C:""_incomplete" f8"""_complete" e8- |"" e8"" d8- |"" d8"" c8- |"" c8"" B8- |"" B8"" A8- | %75
"" A8"" G8- |"" G8"" F8- |"" F8"" E8 |] %78
"""_C:""^Sequences with inversions of seventh chords and triads" f8"" e8- |"" e8"" d8 |] %80
"" f8"" e8- |"" e8"" d8 |]"" B8"" c8 |"" A8"" B8 |]"""_C:""^Only seventh chords" f8"" e8- | %85
"" e8"" d8- |"" d8"" c8- |"" c8"" B8- |"" B8"" A8- |"" A8"" G8- |"" G8"" F8- |"" F8"" E8 |] %92
"""_C:""^Inversions of seventh chords" d8"" c8 |"" c8"" B8 |]"" f8"" e8- |"" e8"" d8 |] %96
"""^Seventh chords and triads with doubled third""_C:" a8"" g8- |"" g8"" f8- |"" f8"" e8- | %99
"" e8"" d8- |"" d8"" c8- |"" c8"" B8- |"" B8"" A8- |"" A8"" G8 |] %104
V:2
 [G,D]8 [C,E]8 | [F,C]8 [B,,D]8 | [E,B,]8 [A,,C]8 | [D,A,]8 [G,,B,]8 | [C,G,]8 [F,,A,]8 | %5
 [B,,F,]8 [E,,G,]8 | [A,,E,]8 [D,,F,]8 | [G,,D,]8 [C,,E,]8 |] E8 E8 | D8 D8 | C8 C8 | B,8 B,8 | %12
 A,8 A,8 | G,8 G,8 | F,8 F,8 | E,8 E,8 |] G8 G8 | F8 F8 | E8 E8 | D8 D8 | C8 C8 | B,8 B,8 | %22
 A,8 A,8 | G,8 G,8 |] D8 E8 | C8 D8 | B,8 C8 | A,8 B,8 | G,8 A,8 | F,8 G,8 | E,8 F,8 | D,8 E,8 |] %32
 C8 B,8 | B,8 A,8 | A,8 G,8 | G,8 F,8 | F,8 E,8 | E,8 D,8 | D,8 C,8 | C,8 B,,8 |] F8 E8 | E8 D8 | %42
 D8 C8 | C8 B,8 | B,8 A,8 | A,8 G,8 | G,8 F,8 | F,8 E,8 |] F8 G8 | E8 F8 |] C8 D8 | B,8 C8 |] %52
 A8 G8 | G8 F8 |] C8 D8 | B,8 C8 |][K:treble] G8 A8 | A8 B8 |] G8 A8 | A8 B8 |] G8 G8 | A8 A8 |] %62
[K:bass] D8 C8 | C8 B,8 | B,8 A,8 | A,8 G,8 | G,8 F,8 | F,8 E,8 | E,8 D,8 | D,8 C,8 |] G8 G8 | %71
 F8 F8 | E8 E8 | D8 D8 | C8 C8 | B,8 B,8 | A,8 A,8 | G,8 G,8 |] G8 G8 | F8 F8 |] G8 G8 | F8 F8 |] %82
 D8 C8 | C8 B,8 |] D8 C8 | C8 B,8 | B,8 A,8 | A,8 G,8 | G,8 F,8 | F,8 E,8 | E,8 D,8 | D,8 C,8 |] %92
 F8 E8- | E8 D8 |] G8 G8 | F8 F8 |] F8 E8 | E8 D8 | D8 C8 | C8 B,8 | B,8 A,8 | A,8 G,8 | G,8 F,8 | %103
 F,8 E,8 |] %104
V:3
 x16 | x16 | x16 | x16 | x16 | x16 | x16 | x16 |] E,8 A,8 | D,8 G,8 | C,8 F,8 | B,,8 E,8 | %12
 A,,8 D,8 | G,,8 C,8 | F,,8 B,,8 | E,,8 A,,8 |] B,8 C8 | A,8 B,8 | G,8 A,8 | F,8 G,8 | E,8 F,8 | %21
 D,8 E,8 | C,8 D,8 | B,,8 C,8 |] B,8 C8 | A,8 B,8 | G,8 A,8 | F,8 G,8 | E,8 F,8 | D,8 E,8 | %30
 C,8 D,8 | B,,8 C,8 |] F,8 G,8 | E,8 F,8 | D,8 E,8 | C,8 D,8 | B,,8 C,8 | A,,8 B,,8 | G,,8 A,,8 | %39
 F,,8 G,,8 |] D8 E8 | C8 D8 | B,8 C8 | A,8 B,8 | G,8 A,8 | F,8 G,8 | E,8 F,8 | D,8 E,8 |] A,8 G,8 | %49
 G,8 F,8 |] A,8 G,8 | G,8 F,8 |] F,8 B,,8 | E,8 A,,8 |] A,8 B,8 | G,8 A,8 |][K:treble] C8 F8 | %57
 D8 G8 |] E8 D8 | F8 E8 |] C8 G8 | D8 A8 |][K:bass] G,8 C,8 | F,8 B,,8 | E,8 A,,8 | D,8 G,,8 | %66
 C,8 F,,8 | B,,8 E,,8 | A,,8 D,,8 | G,,8 C,,8 |] G,8 C,8 | F,8 B,,8 | E,8 A,,8 | D,8 G,,8 | %74
 C,8 F,,8 | B,,8 E,,8 | A,,8 D,,8 | G,,8 C,,8 |] B,8 C8 | A,8 B,8 |] D8 C8 | C8 B,8 |] F,8 E,8- | %83
 E,8 D,8 |] G,8 C8 | F,8 B,8 | E,8 A,8 | D,8 G,8 | C,8 F,8 | B,,8 E,8 | A,,8 D,8 | G,,8 C,8 |] %92
 B,8- B,8 | A,8- A,8 |] D8 C8 | C8 B,8 |] B,8 C8 | A,8 B,8 | G,8 A,8 | F,8 G,8 | E,8 F,8 | %101
 D,8 E,8 | C,8 D,8 | B,,8 C,8 |] %104
V:4
 x16 | x16 | x16 | x16 | x16 | x16 | x16 | x16 |] x16 | x16 | x16 | x16 | x16 | x16 | x16 | x16 |] %16
 d8 c8 | c8 B8 | B8 A8 | A8 G8 | G8 F8 | F8 E8 | E8 D8 | D8 C8 |] d8 c8 | c8 B8 | B8 A8 | A8 G8 | %28
 G8 F8 | F8 E8 | E8 D8 | D8 C8 |] A8 G8 | G8 F8 | F8 E8 | E8 D8 | D8 C8 | C8 B,8 | B,8 A,8 | %39
 A,8 G,8 |] d8 B8 | c8 A8 | B8 G8 | A8 F8 | G8 E8 | F8 D8 | E8 C8 | D8 B,8 |] c8 B8 | B8 A8 |] %50
 c8 B8 | B8 A8 |] c8 d8 | B8 c8 |] F8 G8 | E8 F8 |] c8 c8 | d8 d8 |] c8 d8 | d8 e8 |] c8 B8 | %61
 d8 c8 |] B8 c8 | A8 B8 | G8 A8 | F8 G8 | E8 F8 | D8 E8 | C8 D8 | B,8 C8 |] B8 c8 | A8 B8 | G8 A8 | %73
 F8 G8 | E8 F8 | D8 E8 | C8 D8 | B,8 C8 |] d8 c8 | c8 B8 |] B8 c8 | A8 B8 |] G8 G8 | F8 F8 |] %84
 B8- B8 | A8- A8 | G8- G8 | F8- F8 | E8- E8 | D8- D8 | C8- C8 | B,8 C8 |] G8 G8 | F8 F8 |] B8- B8 | %95
 A8- A8 |] d8 e8 | c8 d8 | B8 c8 | A8 B8 | G8 A8 | F8 G8 | E8 F8 | D8 E8 |] %104

